static/images/logo.svg

<?xml version="1.0" encoding="UTF-8"?>
<svg width="90px" height="40px" viewBox="0 0 90 40" version="1.1" xmlns="http://www.w3.org/2000/svg" xmlns:xlink="http://www.w3.org/1999/xlink">
    <!-- Generator: Sketch 42 (36781) - http://www.bohemiancoding.com/sketch -->
    <title>Artboard</title>
    <desc>Created with Sketch.</desc>
    <defs></defs>
    <g id="Page-1" stroke="none" stroke-width="1" fill="none" fill-rule="evenodd">
        <g id="Artboard" fill-rule="nonzero">
            <g id="002-twitter" transform="translate(50.000000, 0.000000)">
                <circle id="Oval" fill="#65A2D9" cx="20" cy="20" r="20"></circle>
                <path d="M30.7042188,10.8848437 C28.6180469,12.6949219 26.5438281,14.2813281 24.8484375,16.4982812 C20.6780469,21.5273438 15.5817969,28.6623437 8.64640625,27.59875 L21.0378125,39.9734375 C31.5421875,39.4364844 39.9047656,30.7942969 39.9976563,20.1784375 L30.7042188,10.8848437 Z" id="Shape" fill="#3A7CA5"></path>
                <path d="M31.08375,12.6930469 C30.5749219,12.91875 30.0469531,13.0967188 29.505,13.2254688 C30.1021875,12.6582031 30.5510937,11.9484375 30.8042969,11.1564062 C30.8766406,10.9303906 30.6309375,10.7346875 30.4267969,10.8557812 C29.6728906,11.3030469 28.8608594,11.6382812 28.0132031,11.8528125 C27.9641406,11.8653125 27.9135156,11.8715625 27.8625,11.8715625 C27.7078906,11.8715625 27.558125,11.8142969 27.4397656,11.7102344 C26.5380469,10.9153906 25.3780469,10.4776563 24.17375,10.4776563 C23.6525,10.4776563 23.1264844,10.5589062 22.61,10.7191406 C21.0094531,11.2154688 19.7744531,12.5358594 19.3867969,14.1646875 C19.2414844,14.7754688 19.2022656,15.3871875 19.2699219,15.9821875 C19.2775,16.050625 19.2453906,16.0982813 19.2254687,16.120625 C19.1903125,16.1598438 19.1407812,16.1824219 19.0891406,16.1824219 C19.0835156,16.1824219 19.0774219,16.1821875 19.0716406,16.1816406 C15.5680469,15.8560156 12.4085937,14.1682031 10.175625,11.42875 C10.0619531,11.2889844 9.84335937,11.3061719 9.75257812,11.4617188 C9.31539062,12.2121875 9.08429687,13.0702344 9.08429687,13.9434375 C9.08429687,15.2814844 9.62210937,16.5426563 10.5559375,17.4621094 C10.1632031,17.3689062 9.78304687,17.2222656 9.42984375,17.0260156 C9.25890625,16.9311719 9.04882812,17.0533594 9.04640625,17.24875 C9.0221875,19.2366406 10.1860937,21.0055469 11.9296094,21.8020312 C11.8944531,21.8028125 11.8592969,21.803125 11.8241406,21.803125 C11.5478125,21.803125 11.2678125,21.7767188 10.9925,21.7238281 C10.8000781,21.6873438 10.6384375,21.8696875 10.698125,22.0560937 C11.2642187,23.823125 12.7853906,25.1254688 14.6060156,25.4209375 C13.0951562,26.4352344 11.3354687,26.9701562 9.50429687,26.9701562 L8.93351562,26.9699219 C8.75734375,26.9699219 8.60851562,27.0846875 8.56398437,27.2550781 C8.51984375,27.4226562 8.60101562,27.5998437 8.75117187,27.6871094 C10.8146094,28.8880469 13.1684375,29.5226562 15.5588281,29.5226562 C17.6513281,29.5226562 19.6086719,29.1075781 21.3764844,28.2884375 C22.9971875,27.5377344 24.4292969,26.4646094 25.6332031,25.0988281 C26.7548437,23.8264844 27.6317187,22.3578125 28.2398437,20.7332812 C28.819375,19.1851562 29.1257812,17.5327344 29.1257812,15.955625 L29.1257812,15.8803125 C29.1257812,15.6271094 29.2402344,15.3888281 29.4401562,15.2264062 C30.1984375,14.610625 30.8589062,13.8859375 31.4028125,13.0723437 C31.5465625,12.8576563 31.32,12.5882812 31.08375,12.6930469 L31.08375,12.6930469 Z" id="Shape" fill="#FFFFFF"></path>
                <path d="M31.08375,12.6930469 C30.5747656,12.91875 30.0469531,13.0967188 29.505,13.2254688 C30.1021875,12.6582031 30.5510937,11.9484375 30.804375,11.1564062 C30.8767187,10.9303906 30.6310156,10.7346875 30.426875,10.8557812 C29.6729687,11.3030469 28.8609375,11.6382812 28.0132812,11.8528125 C27.9642188,11.8653125 27.9135937,11.8715625 27.8625781,11.8715625 C27.7079688,11.8715625 27.5582031,11.8142969 27.4398438,11.7102344 C26.538125,10.9153906 25.378125,10.4776563 24.1738281,10.4776563 C23.6526562,10.4776563 23.1265625,10.5589062 22.6100781,10.7191406 C21.4911719,11.0660938 20.5520312,11.8166406 19.955,12.7930469 L19.955,28.8459375 C20.4410937,28.6874219 20.9153906,28.5019531 21.3767187,28.2882031 C22.9974219,27.5375 24.4295312,26.464375 25.6334375,25.0985937 C26.7550781,23.8261719 27.6319531,22.3575781 28.2400781,20.7330469 C28.8196094,19.1849219 29.1260156,17.5325 29.1260156,15.9553906 L29.1260156,15.8800781 C29.1260156,15.626875 29.2404687,15.3885938 29.4403906,15.2261719 C30.1986719,14.6103906 30.8591406,13.8857031 31.4030469,13.0721094 C31.5465625,12.8576563 31.32,12.5882813 31.08375,12.6930469 Z" id="Shape" fill="#D1D1D1"></path>
            </g>
            <g id="006-youtube">
                <circle id="Oval" fill="#D42428" cx="19.9971308" cy="19.9971308" r="19.9971308"></circle>
                <path d="M34.1365401,5.85485232 C41.9459072,13.6648945 41.9465823,26.3268354 34.1365401,34.1368776 C26.327173,41.9462447 13.664557,41.9465823 5.85451477,34.1368776 L34.1365401,5.85485232 Z" id="Shape" fill="#CC202D"></path>
                <path d="M39.6895359,23.4568776 L26.2314768,9.99890295 L25.1459072,11.0844726 L24.0603376,9.99890295 L22.8705485,11.188692 L23.6697046,11.9878481 L23.4088608,12.248692 L21.3365401,10.1763713 L21.2481013,10.2654008 L18.4555274,7.472827 L17.2657384,8.66261603 L17.591308,8.98818565 L17.1132489,9.46624473 L15.1002532,7.45324895 L14.2657384,8.28776371 L16.2281857,13.0137553 L15.3443882,16.6421941 L17.7605907,19.0589873 L11.6493671,19.4864979 L11.5568776,30.091308 L21.3912236,39.9376371 C30.6057384,39.2831224 38.1296203,32.3909705 39.6895359,23.4568776 Z" id="Shape" fill="#BA202E"></path>
                <path d="M27.1497046,24.6337553 L25.8594937,24.6337553 L25.8658228,23.8848101 C25.8658228,23.5516456 26.1389873,23.2798312 26.4733333,23.2798312 L26.5560338,23.2798312 C26.8904641,23.2798312 27.1648101,23.55173 27.1648101,23.8848101 L27.1497046,24.6337553 Z M22.3125738,23.028692 C21.9864135,23.028692 21.7186498,23.2487764 21.7186498,23.5178059 L21.7186498,27.1600844 C21.7186498,27.4291139 21.9864135,27.6479325 22.3125738,27.6479325 C22.6412658,27.6479325 22.9090295,27.4291139 22.9090295,27.1600844 L22.9090295,23.5174684 C22.9090295,23.2487764 22.6412658,23.028692 22.3125738,23.028692 Z M30.1664979,20.99173 L30.1664979,27.9201688 C30.1664979,29.5823629 28.7254008,30.9420253 26.9631224,30.9420253 L13.7927426,30.9420253 C12.0301266,30.9420253 10.5893671,29.5820253 10.5893671,27.9201688 L10.5893671,20.99173 C10.5893671,19.3295359 12.030211,17.9692827 13.7927426,17.9692827 L26.9634599,17.9692827 C28.7253165,17.9692827 30.1664979,19.3298734 30.1664979,20.99173 Z M14.6708861,28.6726582 L14.6702954,21.3741772 L16.3027848,21.3747679 L16.3027848,20.2929958 L11.9506329,20.2863291 L11.9506329,21.3491983 L13.3093671,21.3533333 L13.3093671,28.6723207 L14.6708861,28.6723207 L14.6708861,28.6726582 L14.6708861,28.6726582 Z M19.5651477,22.4616034 L18.2038819,22.4616034 L18.2038819,26.3587342 C18.2038819,26.9227004 18.2376371,27.2046414 18.2020253,27.3037975 C18.0908861,27.6059916 17.5932489,27.9268354 17.3996624,27.3366245 C17.3668354,27.2330802 17.395865,26.921097 17.3952743,26.3852321 L17.3889451,22.4612658 L16.0352743,22.4612658 L16.0403376,26.3232911 C16.0409283,26.9153586 16.0267511,27.3567932 16.0447257,27.5576371 C16.0778903,27.9118987 16.0655696,28.3252321 16.3949367,28.5605063 C17.0069198,29.0022785 18.1808439,28.4948523 18.4745148,27.8642194 L18.4719831,28.6687764 L19.5648101,28.6703797 L19.5648101,22.4616034 L19.5651477,22.4616034 Z M23.9198312,26.9242194 L23.9172996,23.6804219 C23.9160338,22.4438819 22.9914768,21.7034599 21.7353586,22.7037975 L21.7410127,20.2919831 L20.3810127,20.2941772 L20.374346,28.6179747 L21.4924895,28.601519 L21.5941772,28.0827004 C23.0236287,29.3951055 23.9222785,28.4964557 23.9198312,26.9242194 Z M28.1806751,26.4945148 L27.1594937,26.4999156 C27.1594937,26.5406751 27.1576371,26.5870886 27.156962,26.6382278 L27.156962,27.2078481 C27.156962,27.5125738 26.9053165,27.7607595 26.5993249,27.7607595 L26.3994093,27.7607595 C26.092827,27.7607595 25.8411814,27.5125738 25.8411814,27.2078481 L25.8411814,27.1447257 L25.8411814,26.5176371 L25.8411814,25.7092827 L28.178481,25.7092827 L28.178481,24.8295359 C28.178481,24.1870042 28.1617722,23.5443882 28.108692,23.1768776 C27.9416878,22.0139241 26.309789,21.8295359 25.4850633,22.4247257 C25.2261603,22.6107173 25.0287764,22.8594937 24.9132489,23.1942616 C24.797384,23.528692 24.7399156,23.9848945 24.7399156,24.5653165 L24.7399156,26.4993249 C24.7407595,29.714346 28.6457384,29.2599156 28.1806751,26.4945148 Z M22.9447257,15.9935865 C23.0145148,16.1647257 23.1234599,16.3027004 23.2721519,16.4075105 C23.4177215,16.509789 23.6053165,16.5619409 23.8291139,16.5619409 C24.0252321,16.5619409 24.1991561,16.5088608 24.3501266,16.3993249 C24.5013502,16.2903797 24.6289451,16.1281013 24.7324895,15.9108861 L24.7065823,16.4451477 L26.2237975,16.4451477 L26.2237975,9.99223629 L25.0292827,9.99223629 L25.0292827,15.0144304 C25.0292827,15.2859916 24.8048101,15.5086076 24.5309705,15.5086076 C24.2590717,15.5086076 24.0339241,15.2859916 24.0339241,15.0144304 L24.0339241,9.99223629 L22.7875949,9.99223629 L22.7875949,14.3443882 C22.7875949,14.898903 22.797384,15.2686076 22.8140928,15.4562025 C22.8319831,15.6424473 22.8745992,15.8208439 22.9447257,15.9935865 Z M18.3466667,12.3491139 C18.3466667,11.7296203 18.398481,11.2461603 18.5007595,10.8975527 C18.6037131,10.5498734 18.7899578,10.2704641 19.0583966,10.0601688 C19.3267511,9.84827004 19.6703797,9.74253165 20.087173,9.74253165 C20.4379747,9.74253165 20.738903,9.81164557 20.9905485,9.94649789 C21.2421941,10.0822785 21.4376371,10.2581435 21.5721519,10.4756962 C21.7104641,10.6939241 21.8032911,10.9183966 21.8535021,11.1479325 C21.9046414,11.3803376 21.9292827,11.7318143 21.9292827,12.2044726 L21.9292827,13.8366245 C21.9292827,14.4352743 21.9053165,14.875443 21.858903,15.1552743 C21.8130802,15.4356962 21.7140084,15.6955274 21.5605063,15.9389873 C21.4089451,16.1802532 21.2131646,16.3605063 20.9756962,16.475443 C20.7363713,16.5919831 20.462616,16.6487764 20.1524895,16.6487764 C19.8070886,16.6487764 19.5152743,16.601097 19.2756118,16.5010127 C19.0350211,16.4018565 18.848692,16.2521519 18.7163713,16.0535865 C18.5818565,15.8546835 18.4881013,15.6124895 18.4315612,15.330211 C18.3740928,15.0475949 18.3469198,14.6235443 18.3469198,14.0577215 L18.3469198,12.3491139 L18.3466667,12.3491139 L18.3466667,12.3491139 Z M19.5345148,14.9127426 C19.5345148,15.2777215 19.8070042,15.5761181 20.1382278,15.5761181 C20.4694515,15.5761181 20.7400844,15.2780591 20.7400844,14.9127426 L20.7400844,11.4772996 C20.7400844,11.1123207 20.4694515,10.8139241 20.1382278,10.8139241 C19.8070042,10.8139241 19.5345148,11.1119831 19.5345148,11.4772996 L19.5345148,14.9127426 Z M15.3351899,16.647173 L16.767173,16.647173 L16.7684388,11.6979747 L18.46,7.45822785 L16.8941772,7.45822785 L15.9948523,10.6079325 L15.082616,7.45004219 L13.5335021,7.45004219 L15.3329958,11.7008439 L15.3351899,16.647173 Z" id="Shape" fill="#FFFFFF"></path>
            </g>
        </g>
    </g>
</svg>

<svg width="90" height="40" viewBox="0 0 90 40" xmlns="http://www.w3.org/2000/svg"><title>Artboard</title><g fill-rule="nonzero" fill="none"><g transform="translate(50)"><circle fill="#65A2D9" cx="20" cy="20" r="20"/><path d="M30.704 10.885c-2.086 1.81-4.16 3.396-5.856 5.613-4.17 5.03-9.266 12.164-16.202 11.1l12.392 12.375c10.504-.537 18.867-9.179 18.96-19.795l-9.294-9.293z" fill="#3A7CA5"/><path d="M31.084 12.693a9.05 9.05 0 0 1-1.579.532 4.92 4.92 0 0 0 1.3-2.069.258.258 0 0 0-.378-.3 9.107 9.107 0 0 1-2.414.997.64.64 0 0 1-.573-.143 4.936 4.936 0 0 0-3.266-1.232c-.521 0-1.048.08-1.564.241a4.783 4.783 0 0 0-3.223 3.446 5.266 5.266 0 0 0-.117 1.817.177.177 0 0 1-.045.139.184.184 0 0 1-.153.06 12.943 12.943 0 0 1-8.896-4.752.258.258 0 0 0-.423.033 4.934 4.934 0 0 0-.669 2.481c0 1.338.538 2.6 1.472 3.52a4.425 4.425 0 0 1-1.126-.437.258.258 0 0 0-.384.223 4.943 4.943 0 0 0 2.884 4.553l-.106.001a4.42 4.42 0 0 1-.832-.08.258.258 0 0 0-.294.333 4.947 4.947 0 0 0 3.908 3.365 9.109 9.109 0 0 1-5.102 1.55l-.57-.001a.378.378 0 0 0-.37.285.39.39 0 0 0 .187.432 13.547 13.547 0 0 0 6.808 1.836c2.092 0 4.05-.415 5.817-1.235a12.847 12.847 0 0 0 4.257-3.19 13.983 13.983 0 0 0 2.607-4.365c.58-1.548.886-3.2.886-4.777v-.076a.84.84 0 0 1 .314-.654 9.76 9.76 0 0 0 1.963-2.154c.144-.214-.083-.484-.32-.379z" fill="#FFF"/><path d="M31.084 12.693a9.055 9.055 0 0 1-1.579.532 4.921 4.921 0 0 0 1.3-2.069.258.258 0 0 0-.378-.3 9.107 9.107 0 0 1-2.414.997.64.64 0 0 1-.573-.143 4.936 4.936 0 0 0-3.266-1.232c-.521 0-1.047.08-1.564.241a4.782 4.782 0 0 0-2.655 2.074v16.053a12.847 12.847 0 0 0 5.678-3.747 13.984 13.984 0 0 0 2.607-4.366c.58-1.548.886-3.2.886-4.778v-.075a.84.84 0 0 1 .314-.654 9.76 9.76 0 0 0 1.963-2.154c.144-.214-.083-.484-.32-.379z" fill="#D1D1D1"/></g><circle fill="#D42428" cx="19.997" cy="19.997" r="19.997"/><path d="M34.137 5.855c7.809 7.81 7.81 20.472 0 28.282-7.81 7.81-20.472 7.81-28.282 0L34.137 5.855z" fill="#CC202D"/><path d="M39.69 23.457L26.23 9.999l-1.085 1.085L24.06 10l-1.19 1.19.8.799-.261.26-2.072-2.072-.089.09-2.792-2.793-1.19 1.19.325.325-.478.478L15.1 7.453l-.834.835 1.962 4.726-.884 3.628 2.417 2.417-6.112.427-.092 10.605 9.834 9.847c9.215-.655 16.739-7.547 18.299-16.481z" fill="#BA202E"/><path d="M27.15 24.634h-1.29l.006-.75c0-.332.273-.604.607-.604h.083c.334 0 .609.272.609.605l-.015.749zm-4.837-1.605c-.327 0-.594.22-.594.489v3.642c0 .27.267.488.594.488.328 0 .596-.219.596-.488v-3.643c0-.268-.268-.488-.596-.488zm7.853-2.037v6.928c0 1.662-1.44 3.022-3.203 3.022h-13.17c-1.763 0-3.204-1.36-3.204-3.022v-6.928c0-1.662 1.441-3.023 3.204-3.023h13.17c1.762 0 3.203 1.36 3.203 3.023zm-15.495 7.68v-7.298h1.632v-1.081l-4.352-.007v1.063l1.358.004v7.32h1.362zm4.894-6.21h-1.361v3.897c0 .564.034.846-.002.945-.111.302-.609.623-.802.033-.033-.104-.004-.416-.005-.952l-.006-3.924h-1.354l.005 3.862c0 .592-.013 1.034.005 1.235.033.354.02.767.35 1.003.612.441 1.786-.066 2.08-.697l-.003.805 1.093.001v-6.208zm4.355 4.462l-.003-3.244c-.001-1.236-.926-1.977-2.182-.976l.006-2.412-1.36.002-.007 8.324 1.118-.016.102-.52c1.43 1.313 2.328.414 2.326-1.158zm4.26-.43l-1.02.006-.003.138v.57a.557.557 0 0 1-.558.553h-.2a.557.557 0 0 1-.558-.553v-1.499h2.337v-.88c0-.642-.016-1.285-.07-1.652-.166-1.163-1.798-1.347-2.623-.752a1.54 1.54 0 0 0-.572.77c-.116.334-.173.79-.173 1.37V26.5c0 3.215 3.906 2.76 3.44-.004zm-5.235-10.5a.92.92 0 0 0 .327.414.951.951 0 0 0 .557.154c.196 0 .37-.053.521-.163.151-.109.279-.27.382-.488l-.025.534h1.517V9.992h-1.195v5.022a.498.498 0 0 1-.995 0V9.992h-1.246v4.352c0 .555.01.925.026 1.112a1.9 1.9 0 0 0 .13.538zm-4.598-3.645c0-.62.051-1.103.154-1.451.103-.348.289-.628.557-.838.269-.212.612-.317 1.03-.317.35 0 .65.069.903.203.251.136.447.312.581.53.138.218.231.442.282.672.05.232.075.584.075 1.056v1.633c0 .598-.024 1.038-.07 1.318-.046.28-.145.54-.298.784a1.416 1.416 0 0 1-.585.536c-.24.117-.513.174-.824.174-.345 0-.637-.048-.876-.148-.241-.1-.427-.249-.56-.447a1.97 1.97 0 0 1-.284-.724c-.058-.282-.085-.706-.085-1.272v-1.709zm1.188 2.564c0 .365.272.663.603.663.331 0 .602-.298.602-.663v-3.436c0-.365-.27-.663-.602-.663-.331 0-.603.298-.603.663v3.436zm-4.2 1.734h1.432l.001-4.949 1.692-4.24h-1.566l-.9 3.15-.911-3.158h-1.55l1.8 4.25.002 4.947z" fill="#FFF"/></g></svg>
